Adwaita++-Light/panel/24/mintupdate-error.svg

<svg height="24" width="24" xmlns="http://www.w3.org/2000/svg">
  <path d="m9.1719 7.7578 2.8281 2.8281 2.828-2.8281 1.414 1.4141-2.828 2.8281 2.828 2.828-1.414 1.414-2.828-2.828-2.8281 2.828-1.4141-1.414 2.8281-2.828-2.8281-2.8281zm2.8281-3.7578c-2.1481 1.9698-5.7654 3.7049-7 4 0 5.333 2.625 11.111 7 12 4.375-.889 7-6.667 7-12-1.235-.2951-4.852-2.0302-7-4z" fill="#4285f4" fill-rule="evenodd"/>
</svg>

<svg xmlns="http://www.w3.org/2000/svg" width="24" height="24" version="1.1">
 <defs>
  <style id="current-color-scheme" type="text/css">
   .ColorScheme-Text { color:#444444; } .ColorScheme-Highlight { color:#4285f4; }
  </style>
 </defs>
 <g>
  <path style="fill:currentColor;fill-rule:evenodd" class="ColorScheme-Highlight" d="M 9.1719,7.7578 12,10.5859 14.828,7.7578 16.242,9.1719 13.414,12 16.242,14.828 14.828,16.242 12,13.414 9.1719,16.242 7.7578,14.828 10.5859,12 7.7578,9.1719 9.1719,7.7578 Z M 12,4 C 9.8519,5.9698 6.2346,7.7049 5,8 5,13.333 7.625,19.111 12,20 16.375,19.111 19,13.333 19,8 17.765,7.7049 14.148,5.9698 12,4 Z"/>
 </g>
</svg>
